public/logo.svg

<svg viewBox="0 0 480 480" fill="none" xmlns="http://www.w3.org/2000/svg">
<g clip-path="url(#clip0_501_4)">
<path fill-rule="evenodd" clip-rule="evenodd" d="M212.094 47.9609C314.801 47.9609 399.014 128.982 404.078 230.478C436.662 243.247 460 275.171 460 312.159C460 360.926 420.37 400.555 371.604 400.555C356.963 400.555 343.202 397.033 331.093 390.648C298.509 416.407 257.008 432.039 212.094 432.039C106.195 432.039 20 345.954 20 240.055C20 134.156 106.195 47.9609 212.094 47.9609ZM212.094 79.8849C174.226 79.8849 139.44 92.9847 111.919 115.001C110.268 114.781 108.506 114.671 106.635 114.561C78.4538 113.79 57.4281 130.083 44.9887 161.236L36.8426 181.931L56.8777 172.464C60.4003 170.923 63.5927 170.153 66.5649 170.153C66.7851 170.153 67.1153 170.373 67.6657 170.703C57.5382 191.729 51.9239 215.176 51.9239 240.055C51.9239 267.806 58.9978 293.95 71.4383 316.763C72.3332 303.042 74.2993 284.281 76.8026 262.182C80.6555 229.267 83.1874 207.911 83.8479 198.003C84.7285 184.353 82.5269 174.446 77.1328 167.731C73.6102 163.548 70.0876 161.346 66.5649 161.346C62.3818 161.346 57.9785 162.337 53.1348 164.538C64.3633 136.467 82.1966 122.707 106.415 123.367C128.101 124.358 138.669 137.458 138.339 163.217C138.008 180.831 131.954 214.626 120.175 265.704C126.23 255.136 134.266 245.229 144.393 236.312C158.814 223.873 173.455 217.818 188.757 217.818C198.994 217.818 207.911 221.341 214.956 228.386C221.011 235.321 224.864 243.688 225.414 253.595C217.818 250.073 209.452 248.752 201.196 250.073C192.609 251.283 183.363 255.797 173.455 263.392C164.869 269.777 158.484 276.162 154.301 282.547C156.172 294.986 164.538 307.205 178.519 318.654C191.619 329.112 203.177 334.286 212.975 334.286C228.056 334.286 245.229 323.057 264.383 300.821L272.089 310.288C264.714 324.048 254.806 336.818 242.367 347.936C225.194 363.568 208.241 371.273 191.619 371.273C179.84 371.273 166.08 364.889 150.118 352.119C134.486 339.349 123.698 325.919 117.973 312.269C117.491 326.419 117.244 338.481 117.23 348.202V350.074C117.248 358.669 117.46 365.298 117.869 369.767C144.316 389.118 176.886 400.555 212.094 400.555C246.88 400.555 279.024 389.327 305.224 370.503C291.464 354.871 283.207 334.836 283.207 312.489C283.207 263.613 323.057 224.093 371.604 224.093C363.568 143.403 294.986 79.8849 212.094 79.8849ZM371.604 256.017C340.34 256.017 315.131 281.446 315.131 312.489C315.131 343.753 340.67 368.962 371.604 368.962C402.867 368.962 428.076 343.423 428.076 312.489C428.076 281.226 402.537 256.017 371.604 256.017Z" fill="url(#paint0_linear_501_4)"/>
</g>
<defs>
<linearGradient id="paint0_linear_501_4" x1="20" y1="47.9609" x2="460" y2="432.039" gradientUnits="userSpaceOnUse">
<stop stop-color="#D1461E"/>
<stop offset="0.25" stop-color="#D65E38"/>
<stop offset="0.5" stop-color="#D97351"/>
<stop offset="0.75" stop-color="#DB876B"/>
<stop offset="1" stop-color="#DB9B85"/>
</linearGradient>
<clipPath id="clip0_501_4">
<rect width="480" height="480" fill="white"/>
</clipPath>
</defs>
</svg>

<svg xmlns="http://www.w3.org/2000/svg" fill="none" viewBox="0 0 480 480"><g clip-path="url(#a)"><path fill="url(#b)" fill-rule="evenodd" d="M212.094 47.96c102.707 0 186.92 81.022 191.984 182.518C436.662 243.247 460 275.171 460 312.159c0 48.767-39.63 88.396-88.396 88.396-14.641 0-28.402-3.522-40.511-9.907-32.584 25.759-74.085 41.391-118.999 41.391C106.195 432.039 20 345.954 20 240.055c0-105.899 86.195-192.094 192.094-192.094Zm0 31.925c-37.868 0-72.654 13.1-100.175 35.116-1.651-.22-3.413-.33-5.284-.44-28.181-.771-49.207 15.522-61.646 46.675l-8.146 20.695 20.035-9.467c3.522-1.541 6.715-2.311 9.687-2.311.22 0 .55.22 1.1.55-10.127 21.026-15.741 44.473-15.741 69.352 0 27.751 7.074 53.895 19.514 76.708.895-13.721 2.861-32.482 5.365-54.581 3.853-32.915 6.384-54.271 7.045-64.179.88-13.65-1.321-23.557-6.715-30.272-3.523-4.183-7.045-6.385-10.568-6.385-4.183 0-8.587.991-13.43 3.192 11.228-28.071 29.062-41.831 53.28-41.171 21.686.991 32.254 14.091 31.924 39.85-.331 17.614-6.385 51.409-18.164 102.487 6.055-10.568 14.091-20.475 24.218-29.392 14.421-12.439 29.062-18.494 44.364-18.494 10.237 0 19.154 3.523 26.199 10.568 6.055 6.935 9.908 15.302 10.458 25.209-7.596-3.522-15.962-4.843-24.218-3.522-8.587 1.21-17.833 5.724-27.741 13.319-8.586 6.385-14.971 12.77-19.154 19.155 1.871 12.439 10.237 24.658 24.218 36.107 13.1 10.458 24.658 15.632 34.456 15.632 15.081 0 32.254-11.229 51.408-33.465l7.706 9.467c-7.375 13.76-17.283 26.53-29.722 37.648-17.173 15.632-34.126 23.337-50.748 23.337-11.779 0-25.539-6.384-41.501-19.154-15.632-12.77-26.42-26.2-32.145-39.85-.482 14.15-.729 26.212-.743 35.933v1.872c.018 8.595.23 15.224.639 19.693 26.447 19.351 59.017 30.788 94.225 30.788 34.786 0 66.93-11.228 93.13-30.052-13.76-15.632-22.017-35.667-22.017-58.014 0-48.876 39.85-88.396 88.397-88.396-8.036-80.69-76.618-144.208-159.51-144.208Zm159.51 176.132c-31.264 0-56.473 25.429-56.473 56.472 0 31.264 25.539 56.473 56.473 56.473 31.263 0 56.472-25.539 56.472-56.473 0-31.263-25.539-56.472-56.472-56.472Z" clip-rule="evenodd"/></g><defs><linearGradient id="b" x1="20" x2="460" y1="47.961" y2="432.039" gradientUnits="userSpaceOnUse"><stop stop-color="#D1461E"/><stop offset=".25" stop-color="#D65E38"/><stop offset=".5" stop-color="#D97351"/><stop offset=".75" stop-color="#DB876B"/><stop offset="1" stop-color="#DB9B85"/></linearGradient><clipPath id="a"><path fill="#fff" d="M0 0h480v480H0z"/></clipPath></defs></svg>
